flaticon/arrows/expand-4.svg

<svg xmlns="http://www.w3.org/2000/svg" width="32" height="32" viewBox="0 0 24 24">
    <path d="M24 15.601562C24 15.378906 23.820312 15.199219 23.601562 15.199219 23.378906 15.199219 23.199219 15.378906 23.199219 15.601562L23.199219 22.632812 14.28125 13.71875C14.125 13.5625 13.875 13.5625 13.71875 13.71875 13.5625 13.875 13.5625 14.125 13.71875 14.28125L22.632812 23.199219 15.601562 23.199219C15.378906 23.199219 15.199219 23.378906 15.199219 23.601562 15.199219 23.820312 15.378906 24 15.601562 24L23.601562 24C23.652344 24 23.703125 23.988281 23.753906 23.96875 23.851562 23.929688 23.929688 23.851562 23.96875 23.753906 23.988281 23.703125 24 23.652344 24 23.601562zM1.367188.800781L8.398438.800781C8.621094.800781 8.800781.621094 8.800781.398438 8.800781.179688 8.621094 0 8.398438 0L.398438 0C.347656 0 .296875.0117188.246094.03125.148438.0703125.0703125.148438.03125.246094.0117188.296875 0 .347656 0 .398438L0 8.398438C0 8.621094.179688 8.800781.398438 8.800781.621094 8.800781.800781 8.621094.800781 8.398438L.800781 1.367188 9.71875 10.28125C9.796875 10.359375 9.898438 10.398438 10 10.398438 10.101562 10.398438 10.203125 10.359375 10.28125 10.28125 10.4375 10.125 10.4375 9.875 10.28125 9.71875zM1.367188.800781"/>
</svg>

<svg xmlns="http://www.w3.org/2000/svg" width="32" height="32" viewBox="0 0 24 24">
    <path d="M24 15.602a.401.401 0 1 0-.8 0v7.03L14.28 13.72a.396.396 0 0 0-.562 0 .396.396 0 0 0 0 .562l8.914 8.918h-7.031a.401.401 0 0 0 0 .8l8 .001c.05 0 .101-.012.152-.031a.387.387 0 0 0 .215-.215.425.425 0 0 0 .031-.152zm0 0M1.367.8h7.031a.401.401 0 0 0 0-.8h-8a.425.425 0 0 0-.152.031.387.387 0 0 0-.215.215A.425.425 0 0 0 0 .398v8a.401.401 0 1 0 .8 0v-7.03L9.72 10.28a.396.396 0 0 0 .562 0 .396.396 0 0 0 0-.562zm0 0"/>
</svg>
